packages/calcite-ui-icons/icons/mosaic-method-by-attribute-32.svg

<svg xmlns="http://www.w3.org/2000/svg" viewBox="0 0 32 32"><path d="M7 12.999h4v4H7v-4zM2 7h4V3H2v4zm10 5h4V8h-4v4zm-5 0h4V8H7v4zm10-4v4h4V8h-4z" opacity=".25"/><path d="M12 13h4v3h1v-3h4v3h1V2H1v16h12v-1h-1v-4zm5-10h4v4h-4V3zm0 5h4v4h-4V8zm-5-5h4v4h-4V3zm0 5h4v4h-4V8zm-6 9H2v-4h4v4zm0-5H2V8h4v4zm0-5H2V3h4v4zm5 10H7v-4h4v4zm0-5H7V8h4v4zm0-5H7V3h4v4zm3 10v14h17V17H14zm4 13h-3v-2h3v2zm0-3h-3v-2h3v2zm0-3h-3v-2h3v2zm6 6h-5v-2h5v2zm0-3h-5v-2h5v2zm0-3h-5v-2h5v2zm6 6h-5v-2h5v2zm0-3h-5v-2h5v2zm0-3h-5v-2h5v2zm0-3H15v-3h15v3z"/><path d="M21 3v3.999h-4V3h4zM2 12h4V8H2v4zm10 4.999h1A1 1 0 0 1 14 16h2v-3.001h-4v4zm-5-10h4V3H7v3.999z" opacity=".5"/><path fill="none" d="M0 0h32v32H0z"/></svg>

<?xml version="1.0" encoding="UTF-8"?><svg id="icons" xmlns="http://www.w3.org/2000/svg" viewBox="0 0 32 32"><defs><style>.cls-1{fill:none;}.cls-2{opacity:.5;}.cls-3{opacity:.25;}</style></defs><path class="cls-3" d="M7,12.99896h4v4h-4v-4ZM2,7h4V3H2v4ZM12,12h4v-4h-4v4ZM7,12h4v-4h-4v4ZM17,8v4h4v-4h-4Z"/><path d="M12,13h4v3h1v-3h4v3h1V2H1v16h12v-1h-1v-4ZM17,3h4v4h-4V3ZM17,8h4v4h-4v-4ZM12,3h4v4h-4V3ZM12,8h4v4h-4v-4ZM6,17H2v-4h4v4ZM6,12H2v-4h4v4ZM6,7H2V3h4v4ZM11,17h-4v-4h4v4ZM11,12h-4v-4h4v4ZM11,7h-4V3h4v4ZM14,17v14h17v-14H14ZM18,30h-3v-2h3v2ZM18,27h-3v-2h3v2ZM18,24h-3v-2h3v2ZM24,30h-5v-2h5v2ZM24,27h-5v-2h5v2ZM24,24h-5v-2h5v2ZM30,30h-5v-2h5v2ZM30,27h-5v-2h5v2ZM30,24h-5v-2h5v2ZM30,21h-15v-3h15v3Z"/><path class="cls-2" d="M21,3v3.99896h-4v-3.99896h4ZM2,12h4v-4H2v4ZM12,16.99896h1.00018c.00061-.55225.44745-.99896.99982-.99896h2v-3.00104h-4v4ZM7,6.99896h4v-3.99896h-4v3.99896Z"/><rect class="cls-1" width="32" height="32"/></svg>
